src/assets/outline/SidebarBottom.svg

<svg width="24" height="24" viewBox="0 0 24 24"  xmlns="http://www.w3.org/2000/svg">
<path d="M14.9702 22.75H8.97021C3.54022 22.75 1.22021 20.43 1.22021 15V9C1.22021 3.57 3.54022 1.25 8.97021 1.25H14.9702C20.4002 1.25 22.7202 3.57 22.7202 9V15C22.7202 20.43 20.4102 22.75 14.9702 22.75ZM8.97021 2.75C4.36021 2.75 2.72021 4.39 2.72021 9V15C2.72021 19.61 4.36021 21.25 8.97021 21.25H14.9702C19.5802 21.25 21.2202 19.61 21.2202 15V9C21.2202 4.39 19.5802 2.75 14.9702 2.75H8.97021Z" />
<path d="M22 16.25H2C1.59 16.25 1.25 15.91 1.25 15.5C1.25 15.09 1.59 14.75 2 14.75H22C22.41 14.75 22.75 15.09 22.75 15.5C22.75 15.91 22.41 16.25 22 16.25Z" />
<path d="M11.9999 11.8104C11.8099 11.8104 11.6199 11.7404 11.4699 11.5904L8.90988 9.03043C8.61988 8.74043 8.61988 8.26043 8.90988 7.97043C9.19988 7.68043 9.67988 7.68043 9.96988 7.97043L11.9999 10.0004L14.0299 7.97043C14.3199 7.68043 14.7999 7.68043 15.0899 7.97043C15.3799 8.26043 15.3799 8.74043 15.0899 9.03043L12.5299 11.5904C12.3799 11.7404 12.1899 11.8104 11.9999 11.8104Z" />
</svg>

<?xml version="1.0" encoding="UTF-8"?>
<svg width="24" height="24" viewBox="0 0 24 24" xmlns="http://www.w3.org/2000/svg">
 <path d="m14.97 22.75h-6c-5.43 0-7.75-2.32-7.75-7.75v-6c0-5.43 2.32-7.75 7.75-7.75h6c5.43 0 7.75 2.32 7.75 7.75v6c0 5.43-2.31 7.75-7.75 7.75zm-6-20c-4.61 0-6.25 1.64-6.25 6.25v6c0 4.61 1.64 6.25 6.25 6.25h6c4.61 0 6.25-1.64 6.25-6.25v-6c0-4.61-1.64-6.25-6.25-6.25h-6z"/>
 <path d="m22 16.25h-20c-0.41 0-0.75-0.34-0.75-0.75s0.34-0.75 0.75-0.75h20c0.41 0 0.75 0.34 0.75 0.75s-0.34 0.75-0.75 0.75z"/>
 <path d="m12 11.81c-0.19 0-0.38-0.07-0.53-0.22l-2.56-2.56c-0.29-0.29-0.29-0.77 0-1.06s0.77-0.29 1.06 0l2.03 2.03 2.03-2.03c0.29-0.29 0.77-0.29 1.06 0s0.29 0.77 0 1.06l-2.56 2.56c-0.15 0.15-0.34 0.22-0.53 0.22z"/>
</svg>
